!!!!SEGMENT: pl-wnifc--6730-n--021_sowinski-wojciech--chants-religieux-de-la-pologne-op-93-saint-stanislas-kostka-salut-saint-radieux.krn
!!!cenid: 18xx:4035
!!!COM: Sowiński, Wojciech
!!!COM-rismID: pe30008543
!!!CDT: ~1803-1880/03/05
!!!CNT:
!!!OTL: Chants religieux de la Pologne op. 93
!!!PDT: 1830
!!!AGN:
!!!SMS-siglum: PL-Wnifc
!!!SMS-shelfmark: 6730/n
!!!SMS-shelfwork: 021 W
!!!SMS-variant:
!!!SMS-altvar:
!!!NIFC-rismSourceID: 1001138221
!!!NIFC-rismChildID: 1001138244
!!!NIFC-islandoraID: nifc:213350
!!!URL-pdf-islandora: https://repozytorium.nifc.pl/islandora/object/nifc%3A213350/datastream/PDF/view
!!!URL-scan: https://polish.musicsources.pl/pl/lokalizacje/galeria/druki-muzyczne/16913 @EN{Scan on Polish Music Sources Website} @PL{Skany w portalu Dziedzictwo Muzyki Polskiej w otwartym dostępie}
!!!IIIF:
!!!ONB-nifc: UWAGA: str. 81-85
!!!AIN: 2 organ 2 soprn
!!!key: F
**kern	**kern	**dynam	**kern	**text	**dynam	**kern	**text	**dynam
*part4	*part3	*part3	*part2	*part2	*part2	*part1	*part1	*part1
*staff4	*staff3	*	*staff2	*staff2	*	*staff1	*staff1	*
*I"Organo	*I"ORGUE.	*	*I"2o. DESSUS.	*	*	*I"1er. DESSUS.	*	*
*Iorgan	*Iorgan	*	*Isoprn	*	*	*Isoprn	*	*
*ICklav	*ICklav	*	*ICklav	*	*	*ICklav	*	*
*	*I'org	*	*I'2 D	*	*	*I'1 D	*	*
*clefF4	*clefG2	*	*clefG2	*	*	*clefG2	*	*
*k[b-]	*k[b-]	*	*k[b-]	*	*	*k[b-]	*	*
*F:	*F:	*	*F:	*	*	*F:	*	*
*M3/4	*M3/4	*	*M3/4	*	*	*M3/4	*	*
=1	=1	=1	=1	=1	=1	=1	=1	=1
!	!	!	!	!	!	!LO:TX:a:t=Più tosto lento ma deciso.	!	!
2.r	(4f\	f	2.r	.	.	2.r	.	.
.	4a\	.	.	.	.	.	.	.
.	4cc\	.	.	.	.	.	.	.
=2	=2	=2	=2	=2	=2	=2	=2	=2
(4F\	8ff\L	.	2.r	.	.	2.r	.	.
.	8ee\J	.	.	.	.	.	.	.
4A\	2ff\)	.	.	.	.	.	.	.
4c\	.	.	.	.	.	.	.	.
=3	=3	=3	=3	=3	=3	=3	=3	=3
*^	*^	*	*	*	*	*	*	*
8f/L	2.F\	(2ff/	8dd\L	.	2.r	.	.	2.r	.	.
8e/J	.	.	8cc\J	.	.	.	.	.	.	.
4d/	.	.	4b-\	.	.	.	.	.	.	.
4c/	.	4ff/	4a\	.	.	.	.	.	.	.
=4	=4	=4	=4	=4	=4	=4	=4	=4	=4	=4
4B-/)	2.F\	4ee/)	4g\	.	2.r	.	.	2.r	.	.
2A/	.	2ff/	2f\	.	.	.	.	.	.	.
*v	*v	*	*	*	*	*	*	*	*	*
*	*v	*v	*	*	*	*	*	*	*
=5	=5	=5	=5	=5	=5	=5	=5	=5
!	!	!	!	!	!	!	!	!LO:DY:a
4FF/	4f\	f	2.r	.	.	4f/	Sa-	f
!	!	!	!	!	!	!	!	!LO:DY:a
4r	4a\	.	.	.	.	4a/	-lut	<
(8A\L	4cc\	.	.	.	.	4cc\	saint	[[
!	!LO:LB:g=original	!	!LO:LB:g=original	!	!	!LO:LB:g=original	!	!
8G\J)	.	.	.	.	.	.	.	.
!LO:LB:g=original	!	!	!	!	!	!	!	!
=6	=6	=6	=6	=6	=6	=6	=6	=6
!	!	!	!	!	!LO:DY:a	!	!	!
4F\	8ff\L	<	4f/	Sa-	f	8ff\	ra-	.
.	8ee\J	.	.	.	.	8ee\	-ri-	.
4A\	2ff\	[[	4a/	-lut	.	4.ff\	-eux	.
4c\	.	.	8cc/	saint	.	.	.	.
.	.	.	8a/	pa-	.	8f/	Pa-	.
=7	=7	=7	=7	=7	=7	=7	=7	=7
*^	*	*	*	*	*	*	*	*
!	!	!	!	!	!	!LO:DY:a	!	!	!LO:DY:a
4f/	2.F\	(8b-\L 8dd	p	8b-/	-tron	p	8dd\	-tron	p
.	.	8a\J 8cc	.	8a/	de	.	8cc\	de	.
4e/	.	4g\) 4b-	.	4g/	la	.	4b-\	la	.
4f/	.	4a\	.	4f/	Pa-	.	4a\	Pa-	.
=8	=8	=8	=8	=8	=8	=8	=8	=8	=8
*	*	*^	*	*	*	*	*	*	*
8c/L	2F\	4g/	4e\	.	4e/	-tri-	.	4g/	-tri-	.
8B-/J	.	.	.	.	.	.	.	.	.	.
4A/	.	(4f/	2f\	.	2f/	-e	.	2f/	-e	.
4F/	4F\	8cc/L	.	.	.	.	.	.	.	.
.	.	8a/J)	.	.	.	.	.	.	.	.
=9	=9	=9	=9	=9	=9	=9	=9	=9	=9	=9
4FF/	2FF\	4f/	2f\	<	4f/	D'un	.	4f/	D'un	.
!	!	!	!	!	!	!	!LO:DY:a	!	!	!LO:DY:a
4F\	.	4a/	.	.	4f/	jour	<	4a/	jour	<
4E\	4ryy	4cc/	4g\	.	4g/	mys-	[[	4cc\	mys-	[[
=10	=10	=10	=10	=10	=10	=10	=10	=10	=10	=10
8F/L	2.F\	4ryy	8a\L 8ff	[	8a/	-té-	.	8ff\	-té-	.
!	!LO:LB:g=original	!	!	!	!	!	!	!	!	!
8c/J	.	.	8b-\J 8ee	.	8b-/	-ri-	.	8ee\	-ri-	.
4f/	.	[2ff/	4a\	.	(4a/	-eux	.	2ff^\	-eux	.
4e-X/	.	.	4cc\	.	4cc/)	.	.	.	.	.
!LO:LB:g=original	!	!LO:LB:g=original	!LO:LB:g=original	!	!LO:LB:g=original	!	!	!LO:LB:g=original	!	!
=11	=11	=11	=11	=11	=11	=11	=11	=11	=11	=11
8d/L	2F\	4ff/]	8b-\L	.	8b-/	pure	.	8dd\	pure	.
8c/J	.	.	8a\J	.	8a/	au-	.	8cc\	au-	.
8c/L	.	4ee/	4g\	.	4g/	-ro-	.	4b-\	-ro-	.
8B-/J	.	.	.	.	.	.	.	.	.	.
4A/	4F\	4ff/	4f\	.	8f/	-re	.	8a\	-re	.
.	.	.	.	.	8f/	ché-	.	8a\	ché-	.
=12	=12	=12	=12	=12	=12	=12	=12	=12	=12	=12
!	!	!	!	!	!	!	!LO:DY:a	!	!	!LO:DY:a
4e/	4F\ 4c	4gg/	4b-\	>	4c/	-ri-	>	4g/	-ri-	>
2f/	2F\	2ff/	2a\	]	2f/	-e	]	2f/	-e	]
*v	*v	*	*	*	*	*	*	*	*	*
*	*v	*v	*	*	*	*	*	*	*
=13||	=13||	=13||	=13||	=13||	=13||	=13||	=13||	=13||
!	!	!	!	!	!LO:DY:a	!	!	!LO:DY:a
4C\ 4c	4r	.	4c/	Glo-	p	4g/	Glo-	p
4r	4g\ 4b- 4cc 4ee	p	8g/	-ri-	.	8b-/	-ri-	.
.	.	.	8e/	-eux	.	8g/	-eux	.
4r	4g\ 4b- 4cc 4ee	.	8g/	Sta-	.	8b-/	Sta-	.
.	.	.	8e/	-nis-	.	8g/	-nis-	.
=14	=14	=14	=14	=14	=14	=14	=14	=14
4FF\ 4F	4r	.	4f/	-las	.	4a/	-las	.
4r	4a\ 4cc 4ff	.	(8a/L	Joy-	.	(8cc\L	Joy-	.
.	.	.	8f/J)	.	.	8a\J)	.	.
4r	4a\ 4cc 4ff	.	8a/	-au	.	8cc\	-au	.
.	.	.	8f/	di-	.	8a\	di-	.
=15	=15	=15	=15	=15	=15	=15	=15	=15
*	*^	*	*	*	*	*	*	*
!	!	!	!	!	!	!LO:HP:t=cres---	!	!	!LO:HP:t=cres---
4F\ 4f	4ff/	8b-\L 8dd	.	8b-/	-vin	<	8dd\	-vin	<
.	.	8a\J 8cc	mf	8a/	fleur	.	8cc\	fleur	.
!	!	!	!LO:HP:t=cres---	!	!	!	!	!	!
4D\ 4d	4ff/	4b-\	<	4g/	par-	.	4b-\	par-	.
4F\ 4c	4ff/	4a\	.	4f/	-fu-	.	4a\	-fu-	.
!LO:PB:g=original	!LO:PB:g=original	!LO:PB:g=original	!	!LO:PB:g=original	!	!	!LO:PB:g=original	!	!
=16	=16	=16	=16	=16	=16	=16	=16	=16	=16
4C\ 4c	4ff/	4a\	.	4f/	-mé-	.	4a/	-mé-	.
4CC/ 4C	(16ee\LL	2ryy	sf	2c^>/	-e	.	2g^>/	-e	.
.	16ff\	.	.	.	.	.	.	.	.
.	16gg\	.	.	.	.	.	.	.	.
.	16aa\JJ)	.	.	.	.	.	.	.	.
4r	8bb-'\	.	.	.	.	.	.	.	.
.	8r	.	.	.	.	.	.	.	.
*	*v	*v	*	*	*	*	*	*	*
=17	=17	=17	=17	=17	=17	=17	=17	=17
!	!	!	!	!	!LO:DY:a	!	!	!LO:DY:a
4C\ 4c	4r	.	4c/	Viens	p	4g/	Viens	p
4r	4g\ 4b- 4cc 4ee	p	8g/	em-	.	8b-/	em-	.
.	.	.	8e/	-bau-	.	8g/	-bau-	.
4r	4g\ 4b- 4cc 4ee	.	8g/	-mer	.	8b-/	-mer	.
.	.	.	8e/	nos	.	8g/	nos	.
=18	=18	=18	=18	=18	=18	=18	=18	=18
!	!	!	!	!	!LO:HP:t=cres---	!	!	!LO:HP:t=cres---
4FF\ 4F	4r	.	4f/	pas	<	4a/	pas	<
4r	4a\ 4cc 4ff	.	(8a/L	Veil-	.	(8cc\L	Veil-	.
.	.	.	8f/J)	.	.	8a\J)	.	.
4r	4a\ 4cc 4ff	.	8a/	-ler	.	8cc\	-ler	.
.	.	.	8f/	sur	.	8a\	sur	.
=19	=19	=19	=19	=19	=19	=19	=19	=19
*	*^	*	*	*	*	*	*	*
!	!	!	!	!	!	!LO:DY:a	!	!	!LO:DY:a
4F\ 4f	4ff/	8b-\L 8dd	f	8b-/	ta	f	8dd\	ta	f
.	.	8a\J 8cc	.	8a/	pa-	.	8cc\	pa-	.
4F\ 4d	4ff/	4b-\	.	4g/	-trie	.	4b-\	-trie	.
!	!	!	!	!	!	!	!LO:TX:a:t=rall.	!	!
4F\ 4c	4ff/	4a\	.	4f/	ai-	.	4a\	ai-	.
!LO:LB:g=original	!LO:LB:g=original	!LO:LB:g=original	!	!LO:LB:g=original	!	!	!LO:LB:g=original	!	!
=20	=20	=20	=20	=20	=20	=20	=20	=20	=20
4C\ 4c	16ee/LL	(>4ee\	.	4c/	-mé-	.	4g/	-mé-	.
.	16bb-/	.	.	.	.	.	.	.	.
.	16gg/	.	.	.	.	.	.	.	.
.	16ee/JJ	.	.	.	.	.	.	.	.
4F\ 4A	4ryy	4ff\)	.	2f^>/	-e	.	2f^>/	-e	.
4FF/	4r	4ryy	.	.	.	.	.	.	.
*	*v	*v	*	*	*	*	*	*	*
=21||	=21||	=21||	=21||	=21||	=21||	=21||	=21||	=21||
*^	*	*	*	*	*	*	*	*
4C\	2.c\	4ee\ 4gg	.	2.r	.	.	2.r	.	.
4ryy	.	(8gg\L 8bb-	.	.	.	.	.	.	.
.	.	8ee\ 8gg	.	.	.	.	.	.	.
8d/L	.	8gg\ 8bb-	.	.	.	.	.	.	.
8e/J	.	8ee\J 8gg)	.	.	.	.	.	.	.
=22	=22	=22	=22	=22	=22	=22	=22	=22	=22
2f/	2.f\	4ff\ 4aa	.	2.r	.	.	2.r	.	.
.	.	(8aa\L 8ccc	.	.	.	.	.	.	.
.	.	8ff\ 8aa	.	.	.	.	.	.	.
8g/L	.	8aa\ 8ccc	.	.	.	.	.	.	.
8a/J	.	8ff\J 8aa)	.	.	.	.	.	.	.
*v	*v	*	*	*	*	*	*	*	*
=23	=23	=23	=23	=23	=23	=23	=23	=23
8B-\L 8b-	8ff\L 8ddd	.	2.r	.	.	2.r	.	.
8A\J 8a	8ff\J 8ccc	.	.	.	.	.	.	.
4G\ 4g	4bb-\ 4eee	.	.	.	.	.	.	.
4F\ 4f	4aa\ 4fff	.	.	.	.	.	.	.
=24	=24	=24	=24	=24	=24	=24	=24	=24
(4c#X\ 4e	4bb-\ 4ggg	.	2.r	.	.	2.r	.	.
!	!	!	!LO:LB:g=original	!	!	!LO:LB:g=original	!	!
4d\)	4aa\ 4fff	.	.	.	.	.	.	.
4r	4r	.	.	.	.	.	.	.
!LO:LB:g=original	!LO:LB:g=original	!	!	!	!	!	!	!
=25	=25	=25	=25	=25	=25	=25	=25	=25
(4BB-\ 4B-	(4ff\ 4ddd	.	2.r	.	.	2.r	.	.
4AA\) 4A	4ff\) 4ccc	.	.	.	.	.	.	.
4r	4r	.	.	.	.	.	.	.
=26	=26	=26	=26	=26	=26	=26	=26	=26
!	!LO:TX:b:t=ten.	!	!	!	!	!	!	!
2.C\ [2.c	2.b-\ 2.ee	.	2.r	.	.	2.r	.	.
=27	=27	=27	=27	=27	=27	=27	=27	=27
*^	*	*	*	*	*	*	*	*
!	!	!	!	!	!	!LO:DY:a	!LO:TX:a:t=2.me STROPHE.	!	!LO:DY:a
4c\]	4F\	4a\ 4ff	f	4f/	Toi	f	4f/	Toi	f
!	!	!	!	!	!	!	!	!	!LO:DY:a
[4A/	8.F\L	4f\ 4a	.	4f/	que	.	4a/	que	<
.	16E\Jk	.	.	.	.	.	.	.	.
4A/]	4F\	4a\ 4cc	.	4a/	le	.	4cc\	le	[[
=28	=28	=28	=28	=28	=28	=28	=28	=28	=28
4FF/	4ryy	8a\L 8ff	.	8a/	roi	.	8ff\	roi	.
.	.	8b-\J 8ee	.	8b-/	du	.	8ee\	du	.
[4A/	8.F\L	2a\ 2ff	sf	2a/	Ciel	.	2ff^\	CIel	.
.	16E\Jk	.	.	.	.	.	.	.	.
4A/]	4F\	.	.	.	.	.	.	.	.
*v	*v	*	*	*	*	*	*	*	*
=29	=29	=29	=29	=29	=29	=29	=29	=29
*	*^	*	*	*	*	*	*	*
!	!	!	!	!	!	!LO:DY:a	!	!	!
2BB-\ 2B-	2ff/	8b-\L 8dd	.	8b-/	et	p	8dd\	et	p
.	.	8a\J 8cc	.	8a/	sa	.	8cc\	sa	.
.	.	4g\ 4b-	.	4g/	di-	.	4b-\	di-	.
4BBn\ 4Bn	4ff/	4f\ 4a	.	8f/	-vi-	.	8a\	-vi-	.
.	.	.	.	8f/	-ne	.	8a\	-ne	.
!LO:LB:g=original	!LO:LB:g=original	!LO:LB:g=original	!	!LO:LB:g=original	!	!	!LO:LB:g=original	!	!
=30	=30	=30	=30	=30	=30	=30	=30	=30	=30
4C\ 4c	4ee/	8g\L	.	4e/	Mè-	.	4g/	Mè-	.
.	.	8b-\J	.	.	.	.	.	.	.
4F\ 4c	2ff/	8a\L	.	2f/	-re	.	2f/	-re	.
.	.	8dd\	.	.	.	.	.	.	.
4r	.	8cc\	.	.	.	.	.	.	.
.	.	8a\J	.	.	.	.	.	.	.
=31	=31	=31	=31	=31	=31	=31	=31	=31	=31
*^	*	*	*	*	*	*	*	*	*
!	!	!	!	!	!	!	!LO:DY:a	!	!	!LO:DY:a
4A/	2F\	8.f/L	2ryy	.	4f/	Comme	<	4f/	Comme	<
.	.	16f/Jk	.	.	.	.	.	.	.	.
4c/	.	8.a/L	.	.	4f/	un	.	4a/	un	.
.	.	16a/Jk	.	.	.	.	.	.	.	.
4c/	4E\	8.cc/L	4g\	.	4g/	gage	[[	4cc\	gage	[[
.	.	16cc/Jk	.	.	.	.	.	.	.	.
*	*	*v	*v	*	*	*	*	*	*	*
=32	=32	=32	=32	=32	=32	=32	=32	=32	=32
4c/	4F\	8a\L 8ff	.	8a/	é-	.	8ff\	é-	.
.	.	8b-\J 8ee	.	8b-/	-ter-	.	8ee\	-ter-	.
8FF/L	2ryy	2a\ 2ff	.	4.a^>/	-nel	.	4.ff^\	-nel	.
8AA/	.	.	.	.	.	.	.	.	.
8C/	.	.	.	.	.	.	.	.	.
8F/J	.	.	.	8f/	don-	.	8f/	don-	.
*v	*v	*	*	*	*	*	*	*	*
=33	=33	=33	=33	=33	=33	=33	=33	=33
*	*^	*	*	*	*	*	*	*
*	*	*^	*	*	*	*	*	*	*
!	!	!	!	!	!	!	!LO:DY:a	!	!	!LO:DY:a
8BB-\L 8B-	4ff/	4f\	8dd\L	sf	8b-/	-nè-	p	8dd\	-nè-	p
8AA\J 8A	.	.	8cc\J	.	8a/	-rent	.	8cc\	-rent	.
4GG\ 4G	4ee/	4b-\	2ryy	.	4g/	à	.	4b-\	à	.
4FF\ 4F	4ff/	4a\	.	.	4f/	la	.	4a/	la	.
*	*	*v	*v	*	*	*	*	*	*	*
=34	=34	=34	=34	=34	=34	=34	=34	=34	=34
*^	*	*	*	*	*	*	*	*	*
8E/L	4EE\	4cc/ 4gg	4b-\	>	4c/	ter-	.	4g/	ter-	.
8C/J	.	.	.	.	.	.	.	.	.	.
2F\	2FF\	2ff/	2a\ 2cc	.	2f/	-re	.	2f/	-re	.
!LO:LB:g=original	!LO:LB:g=original	!LO:LB:g=original	!LO:LB:g=original	!	!LO:LB:g=original	!	!	!LO:LB:g=original	!	!
*v	*v	*	*	*	*	*	*	*	*	*
*	*v	*v	*	*	*	*	*	*	*
=35||	=35||	=35||	=35||	=35||	=35||	=35||	=35||	=35||
!	!	!	!	!	!LO:DY:a	!	!	!LO:DY:a
4CC/ 4C	4g\ 4cc 4ee 4gg	] f	4c/	Grand	f	4g/	Grand	f
(4C\	(16bb-\LL	p	8g/	saint	.	8b-/	saint	.
.	16aa\	.	.	.	.	.	.	.
.	16gg\	.	8e/	ex-	.	8g/	ex-	.
.	16ff\JJ	.	.	.	.	.	.	.
4c\)	16ee\LL	.	8g/	-au-	.	8b-/	-au-	.
.	16dd\	.	.	.	.	.	.	.
.	16cc\	.	8e/	-ce-	.	8g/	-ce-	.
.	16b-\JJ)	.	.	.	.	.	.	.
=36	=36	=36	=36	=36	=36	=36	=36	=36
4F\ 4A	(8a\L	f	4f/	-moi	.	4a/	-moi	.
.	16cc\L	.	.	.	.	.	.	.
.	16ff\JJ	.	.	.	.	.	.	.
(4C\	16aa\LL	p	(8a/L	A-	.	(8cc/L	A-	.
.	16gg\	.	.	.	.	.	.	.
.	16ff\	.	8f/J)	.	.	8a/J)	.	.
.	16ee\JJ	.	.	.	.	.	.	.
4c\)	16dd\LL	.	8a/	-mour	.	8cc/	-mour	.
.	16cc\	.	.	.	.	.	.	.
.	16b-\	.	8f/	de	.	8a/	de	.
.	16a\JJ)	.	.	.	.	.	.	.
=37	=37	=37	=37	=37	=37	=37	=37	=37
*	*^	*	*	*	*	*	*	*
*	*	*^	*	*	*	*	*	*	*
8BB-\L 8B-	4ff/	4f\	8dd\L	<	8b-/	Dieu	.	8dd\	Dieu	.
8AA\J 8A	.	.	8cc\J	.	8a/	don	.	8cc\	don	.
!	!	!	!	!	!	!	!LO:HP:t=decres.	!	!	!LO:HP:t=decres.
4GG\ 4G	(16b-/LL	4b-\	2ryy	.	4g/	de	>	4b-\	de	>
.	16ff/	.	.	.	.	.	.	.	.	.
.	16gg/	.	.	.	.	.	.	.	.	.
.	16ff/JJ)	.	.	.	.	.	.	.	.	.
4FF\ 4F	(16a/LL	4a\	.	.	4f/	sa	.	4a/	sa	.
.	16ff/	.	.	.	.	.	.	.	.	.
.	16gg/	.	.	.	.	.	.	.	.	.
.	16ff/JJ)	.	.	.	.	.	.	.	.	.
!LO:LB:g=original	!LO:LB:g=original	!LO:LB:g=original	!	!	!LO:LB:g=original	!	!	!LO:LB:g=original	!	!
*	*	*v	*v	*	*	*	*	*	*	*
=38	=38	=38	=38	=38	=38	=38	=38	=38	=38
4C\	(16a/LL	4a\	[	4f/	grâ-	.	4a/	grâ-	.
.	16ff/	.	.	.	.	.	.	.	.
.	16gg/	.	.	.	.	.	.	.	.
.	16ff/JJ	.	.	.	.	.	.	.	.
4c\	16ee\LL	2ryy	.	2c/	-ce	.	2g/	-ce	.
.	16cc\	.	.	.	.	.	.	.	.
.	16bn\	.	.	.	.	.	.	.	.
.	16cc\JJ	.	.	.	.	.	.	.	.
4r	16ee\LL	.	.	.	.	.	.	.	.
.	16cc\	.	.	.	.	.	.	.	.
.	16gg\	.	.	.	.	.	.	.	.
.	16ee\JJ)	.	.	.	.	.	.	.	.
*	*v	*v	*	*	*	*	*	*	*
=39	=39	=39	=39	=39	=39	=39	=39	=39
!	!	!	!	!	!LO:DY:a	!	!	!LO:DY:a
4E\ 4G	4bb-\	f	4c/	Mon	p	4g/	Mon	p
(4C\	(16bb-\LL	p	8g/	coeur	.	8b-/	coeur	.
.	16aa\	.	.	.	.	.	.	.
.	16gg\	.	8e/	est	.	8g/	est	.
.	16ff\JJ	.	.	.	.	.	.	.
4c\)	16ee\LL	.	8g/	tout	.	8b-/	tout	.
.	16dd\	.	.	.	.	.	.	.
.	16cc\	.	8e/	à	.	8g/	à	.
.	16b-\JJ)	.	.	.	.	.	.	.
=40	=40	=40	=40	=40	=40	=40	=40	=40
4F\ 4A	8a\L	sf	4f/	toi	.	4a/	toi	.
.	(16cc\L	.	.	.	.	.	.	.
.	16ff\JJ	.	.	.	.	.	.	.
(4C\	16aa\LL	p	(8a/L	Que	.	(8cc/L	Que	.
.	16gg\	.	.	.	.	.	.	.
.	16ff\	.	8f/J)	.	.	8a/J)	.	.
.	16ee\JJ	.	.	.	.	.	.	.
4c\)	16dd\LL	.	8a/	dans	.	8cc/	dans	.
.	16cc\	.	.	.	.	.	.	.
.	16b-\	.	8f/	le	.	8a/	le	.
.	16a\JJ)	.	.	.	.	.	.	.
!LO:PB:g=original	!LO:PB:g=original	!	!LO:PB:g=original	!	!	!LO:PB:g=original	!	!
=41	=41	=41	=41	=41	=41	=41	=41	=41
*	*^	*	*	*	*	*	*	*
*	*	*^	*	*	*	*	*	*	*
!	!	!	!	!	!	!	!	!	!	!LO:DY:a
8BB-\L 8B-	4ff/	4f\	8dd\L	<	8b-/	coeur	.	8dd\	coeur	f
8AA\J 8A	.	.	8cc\J	.	8a/	le	.	8cc\	le	.
4GG\ 4G	4ee/	4b-\	2ryy	.	4g/	jour	.	4b-\	jour	.
4FF\ 4F	4ff/	4a\	.	.	4f/	se	.	4a/	se	.
*	*	*v	*v	*	*	*	*	*	*	*
=42	=42	=42	=42	=42	=42	=42	=42	=42	=42
4CC/ 4C	8ccc/L	4cc\ 4ee	[ sf >	4c/	fas-	.	4g/	fas-	.
.	8bb-/J	.	.	.	.	.	.	.	.
2FF\ 2F	2aa\	2cc\ 2ff	]	2f/	-se	.	2f/	-se	.
*	*v	*v	*	*	*	*	*	*	*
=43||	=43||	=43||	=43||	=43||	=43||	=43||	=43||	=43||
4F\ 4f	4a\ 4cc	.	2.r	.	.	2.r	.	.
4E\ 4e	4g\ 4a 4cc#X	.	.	.	.	.	.	.
4D\ 4d	4f\ 4a 4dd	.	.	.	.	.	.	.
=44	=44	=44	=44	=44	=44	=44	=44	=44
*	*^	*	*	*	*	*	*	*
4C\ 4c	8ee/L	4f#X\ 4a	.	2.r	.	.	2.r	.	.
.	8dd/J	.	.	.	.	.	.	.	.
4BB-\ 4B-	4dd/	4g\	.	.	.	.	.	.	.
4AA\ 4A	4ff#X/	4cc\ 4dd	.	.	.	.	.	.	.
=45	=45	=45	=45	=45	=45	=45	=45	=45	=45
4GG\ 4G	4gg/	4b-\ 4dd	.	2.r	.	.	2.r	.	.
4AA\ 4A	4ff#X/	4cc\ 4dd	.	.	.	.	.	.	.
4BB-\ 4B-	4gg/	4b-\ 4dd	.	.	.	.	.	.	.
=46	=46	=46	=46	=46	=46	=46	=46	=46	=46
4BBn\ 4Bn	4ff/	4a-X\ 4dd	.	2.r	.	.	2.r	.	.
!	!	!	!	!LO:LB:g=original	!	!	!LO:LB:g=original	!	!
4C\ 4c	4ff/	4an\ [4cc	.	.	.	.	.	.	.
4C\ 4c	4ee/	4g\ 4cc]	.	.	.	.	.	.	.
!LO:LB:g=original	!LO:LB:g=original	!LO:LB:g=original	!	!	!	!	!	!	!
*	*v	*v	*	*	*	*	*	*	*
=47	=47	=47	=47	=47	=47	=47	=47	=47
!	!	!	!	!	!LO:DY:a	!LO:TX:a:t=3.me STROPHE.	!	!LO:DY:a
4F^\ 4A 4c	4..f\ 4..ff	.	4f/	Ton	f	4f/	Ton	f
4F^\ 4A 4c	.	.	4f/	coeur	.	4a/	coeur	.
.	(16ff\KL	p	.	.	.	.	.	.
4r	8.cc\)	.	4a/	brû-	.	4cc\	brû-	.
.	(16a\Jk	.	.	.	.	.	.	.
=48	=48	=48	=48	=48	=48	=48	=48	=48
4F^\ 4A 4c	4..f\)	.	8a/	-lant	.	8ff\	-lant	.
.	.	.	8b-/	d'a-	.	8ee\	d'a-	.
4F^\ 4A 4c	.	.	2a/	-mour	.	2ff\	-mour	.
.	16f\KL	<	.	.	.	.	.	.
4r	8.a\	.	.	.	.	.	.	.
.	16cc\Jk	[[	.	.	.	.	.	.
=49	=49	=49	=49	=49	=49	=49	=49	=49
*^	*^	*	*	*	*	*	*	*
8B-/L	2F\	4ff/	8dd\L	.	8b-/	fait	.	8dd\	fait	.
8A/J	.	.	8cc\J	.	8a/	jail-	.	8cc\	jaul-	.
4G/	.	4ff/	4b-\	.	4g/	-lir	.	4b-\	-lir	.
4F/	4F\	4ff/	4a\	.	8f/	l'é-	.	8a/	l'é-	.
.	.	.	.	.	8f/	-tin-	.	8a/	-tin-	.
*v	*v	*	*	*	*	*	*	*	*	*
=50	=50	=50	=50	=50	=50	=50	=50	=50	=50
4C\ 4c	4ee/	(>8cc\L	>	4e/	-cel-	.	4g/	-cel-	.
.	.	8b-\J)	]	.	.	.	.	.	.
4F\	4ff/	(>16a\LL	.	2f^>/	-le	.	2f^>/	-le	.
.	.	16b-\	.	.	.	.	.	.	.
.	.	16cc\	.	.	.	.	.	.	.
.	.	16dd\JJ	.	.	.	.	.	.	.
4r	4ryy	16ee\LL	.	.	.	.	.	.	.
.	.	16ff\	.	.	.	.	.	.	.
.	.	16cc\	.	.	.	.	.	.	.
.	.	16a\JJ)	.	.	.	.	.	.	.
!LO:LB:g=original	!LO:LB:g=original	!LO:LB:g=original	!	!LO:LB:g=original	!	!	!LO:LB:g=original	!	!
*	*v	*v	*	*	*	*	*	*	*
=51	=51	=51	=51	=51	=51	=51	=51	=51
!	!	!	!	!	!LO:DY:a	!	!	!LO:DY:a
4F\ 4A 4c	4..f\	fp	4f/	Qui	<	4f/	Qui	<
4F\ 4A 4c	.	.	4f/	s'é-	.	4a/	s'é-	.
.	(16ff\KL	.	.	.	.	.	.	.
4r	8.cc\)	.	4a/	-tend	[[	4cc\	-tend	[[
.	(16a\Jk	.	.	.	.	.	.	.
=52	=52	=52	=52	=52	=52	=52	=52	=52
4F\ 4A 4c	4..f\)	.	8a/	à	.	8ff\	à	.
.	.	.	8b-/	son	.	8ee\	son	.
4F\ 4A 4c	.	.	2a/	tour	.	2ff\	tour	.
.	(16f\KL	.	.	.	.	.	.	.
4r	8.a\)	.	.	.	.	.	.	.
.	(16cc\Jk	.	.	.	.	.	.	.
=53	=53	=53	=53	=53	=53	=53	=53	=53
*^	*^	*	*	*	*	*	*	*
!	!	!	!	!	!	!	!LO:DY:a	!	!	!LO:DY:a
8B-/L	2F\	4ff/)	8dd\L	f	8b-/	sur	p	8dd\	sur	p
8A/J	.	.	8cc\J	.	8a/	tout	.	8cc\	tout	.
4G/	.	4ff/	4b-\	.	4g/	ce	.	4b-\	ce	.
4F/	4ryy	4ff/	4a\	.	8f/	qui	.	8a/	qui	.
.	.	.	.	.	8f/	chan-	.	8a/	chan-	.
*	*	*v	*v	*	*	*	*	*	*	*
=54	=54	=54	=54	=54	=54	=54	=54	=54	=54
8c/L	4C\	(16ee\LL	.	4c/	-cel-	.	4g/	-cel-	.
.	.	16cc\	.	.	.	.	.	.	.
8B-/J	.	16dd\	.	.	.	.	.	.	.
.	.	16ee\JJ)	.	.	.	.	.	.	.
4A/	4F\	4ff\	.	2f/	-le	.	2f/	-le	.
4ryy	4ryy	4ryy	.	.	.	.	.	.	.
!LO:LB:g=original	!LO:LB:g=original	!LO:LB:g=original	!	!LO:LB:g=original	!	!	!LO:LB:g=original	!	!
*v	*v	*	*	*	*	*	*	*	*
=55||	=55||	=55||	=55||	=55||	=55||	=55||	=55||	=55||
!	!	!	!	!	!	!	!	!LO:DY:a
4C/	8r	.	4c/	Oh!	.	4g/	Oh!	f
.	8g\	mf	.	.	.	.	.	.
8qBn/	.	.	.	.	.	.	.	.
4c\	2eet\	.	8g/	que	.	8b-/	que	.
.	.	.	8e/	ce	.	8g/	ce	.
8qB/	.	.	.	.	.	.	.	.
4c\	.	.	8g/	di-	.	8b-/	di-	.
.	.	.	8e/	-vin	.	8g/	-vin	.
.	32qqdd/LLL	.	.	.	.	.	.	.
.	32qqee/JJJ	.	.	.	.	.	.	.
=56	=56	=56	=56	=56	=56	=56	=56	=56
4F\	8r	.	4f/	feu	.	4a/	feu	.
.	8a\	.	.	.	.	.	.	.
8qBn/	.	.	.	.	.	.	.	.
4c\	2ffT\	.	8a/	Change	.	8cc\	Change	.
.	.	.	8f/	en	.	8a\	en	.
8qB/	.	.	.	.	.	.	.	.
4c\	.	.	(8a/L	nos	.	(8cc\L	nos	.
.	.	.	8f/J)	.	.	8a\J)	.	.
.	32qqee/LLL	.	.	.	.	.	.	.
.	32qqff/JJJ	.	.	.	.	.	.	.
=57	=57	=57	=57	=57	=57	=57	=57	=57
*^	*	*	*	*	*	*	*	*
!	!	!	!	!	!	!LO:DY:a	!	!	!LO:DY:a
8B-/L	2F\	8dd\L 8ddd	f	8b-/	coeurs	p	8dd\	coeurs	p
8c/J	.	8cc\J 8ccc	.	8a/	la	.	8cc\	la	.
8d/L	.	4b-\ 4bb-	.	4g/	glace	.	4b-\	glace	.
8en/J	.	.	.	.	.	.	.	.	.
4f/	4F\	4a\ 4aa	.	4f/	en	.	4a\	en	.
!LO:LB:g=original	!LO:LB:g=original	!LO:LB:g=original	!	!LO:LB:g=original	!	!	!LO:LB:g=original	!	!
*v	*v	*	*	*	*	*	*	*	*
=58	=58	=58	=58	=58	=58	=58	=58	=58
4C/	16aa\LL	<	4f/	flam-	.	4a/	flam-	.
.	(16cc\	.	.	.	.	.	.	.
.	16ff\	.	.	.	.	.	.	.
.	16aa\JJ	.	.	.	.	.	.	.
4c\	16gg\LL	.	2c^>/	-me	.	2g^>/	-me	.
.	16aa\	[	.	.	.	.	.	.
.	16bb-\	>	.	.	.	.	.	.
.	16gg\JJ	.	.	.	.	.	.	.
4r	16ee\LL	.	.	.	.	.	.	.
.	16cc\	.	.	.	.	.	.	.
.	16b-\	.	.	.	.	.	.	.
.	16g\JJ)	]]	.	.	.	.	.	.
=59	=59	=59	=59	=59	=59	=59	=59	=59
4C/	16e/	.	4e/	Et	.	4g/	Et	.
.	(16cc\LL	p	.	.	.	.	.	.
.	16ee\	.	.	.	.	.	.	.
.	16ccc\JJ)	.	.	.	.	.	.	.
8qBn/	.	.	.	.	.	.	.	.
!	!	!	!	!	!LO:DY:a	!	!	!LO:DY:a
4c\	16r	.	8b-/	que	p	8ee\	que	p
.	(16cc\LL	.	.	.	.	.	.	.
.	16ee\	.	8g/	l'a-	.	8cc\	l'a-	.
.	16ccc\JJ)	.	.	.	.	.	.	.
8qB/	.	.	.	.	.	.	.	.
4c\	16r	.	8b-/	-mour	.	8ee\	-mour	.
.	(16cc\LL	.	.	.	.	.	.	.
.	16ee\	.	8g/	de	.	8cc\	de	.
.	16ccc\JJ)	.	.	.	.	.	.	.
=60	=60	=60	=60	=60	=60	=60	=60	=60
4F\	16r	.	4a/	Dieu	.	4ff\	Dieu	.
.	16cc\LL	p	.	.	.	.	.	.
.	16ff\	.	.	.	.	.	.	.
.	16ccc\JJ	.	.	.	.	.	.	.
8qBn/	.	.	.	.	.	.	.	.
4c\	16r	.	(8f/L	Au	.	(8a\L	Au	.
.	16cc\LL	.	.	.	.	.	.	.
.	16ff\	.	8a/J)	.	.	8cc\J)	.	.
.	16ccc\JJ	.	.	.	.	.	.	.
8qB/	.	.	.	.	.	.	.	.
4c\	16r	.	8a/	Ciel	.	8ff\	Ciel	.
.	16cc\LL	.	.	.	.	.	.	.
.	16ff\	.	8cc/	em-	.	8ee\	em-	.
.	16ccc\JJ	.	.	.	.	.	.	.
!LO:LB:g=original	!LO:LB:g=original	!	!LO:LB:g=original	!	!	!LO:LB:g=original	!	!
=61	=61	=61	=61	=61	=61	=61	=61	=61
*^	*	*	*	*	*	*	*	*
!	!	!	!	!	!	!LO:DY:a	!	!	!LO:DY:a
8B-/L	2F\	16dd\LL	f	8b-/	-porte	f	8dd\	-porte	f
.	.	16ddd\	.	.	.	.	.	.	.
8c/	.	16cc\	.	8a/	aus-	.	8cc\	aus-	.
.	.	16ccc\JJ	.	.	.	.	.	.	.
8d/	.	16b-\LL	.	4g/	-si	.	4b-\	-si	.
.	.	16bb-\	.	.	.	.	.	.	.
8e/J	.	16b-\	.	.	.	.	.	.	.
.	.	16bb-\JJ	.	.	.	.	.	.	.
4f/	4F\	16a\LL	.	4f/	notre	.	4a\	notre	.
.	.	16aa\	.	.	.	.	.	.	.
.	.	16a\	.	.	.	.	.	.	.
.	.	16aa\JJ	.	.	.	.	.	.	.
=62	=62	=62	=62	=62	=62	=62	=62	=62	=62
8c/L	4C\	8gg\L	.	4c/	â-	.	4g/	â-	.
8B-/J	.	8ee\J	.	.	.	.	.	.	.
4A\	4F\	4ff\	.	2A/ 2f	-me	.	2f/	-me	.
4F\	4FF\	4f\ 4a 4cc 4ff	.	.	.	.	.	.	.
*v	*v	*	*	*	*	*	*	*	*
=63	=63	=63	=63	=63	=63	=63	=63	=63
4FF\ 4F	4f\ 4a 4cc 4ff	f	2.r	.	.	2.r	.	.
4C\ 4c	4a\ 4cc 4ff 4aa	<	.	.	.	.	.	.
4AA\ 4A	4cc\ 4ff 4aa 4ccc	.	.	.	.	.	.	.
=64	=64	=64	=64	=64	=64	=64	=64	=64
4FF\ 4F	8ff\L 8aa 8fff	.	2.r	.	.	2.r	.	.
.	8ee\J 8eee	[	.	.	.	.	.	.
2FF\ 2F	2ff\ 2aa 2fff	.	.	.	.	.	.	.
==	==	==	==	==	==	==	==	==
*-	*-	*-	*-	*-	*-	*-	*-	*-
!!!RDF**kern: > = above
!!!RDF**kern: < = below
!!!system-decoration: [(s1,s2)][(s3,s4)]
!!!ENC: Andrzej Gręziak
!!!END: 2022-08-13
!!!ENC: Julita Ruszuk
!!!END: 2022-09-12
!!!YEC: Copyright 2022 Narodowy Instytut Fryderyka Chopina (https://polishscores.org)
!!!YEM: License CC-BY-4.0 (https://creativecommons.org/licenses/by/4.0)
